X: 13568
T: Fly On The Wall, The
R: reel
M: 4/4
K: Gmajor
eged e2ge|dB~B2 AGEG|DEDB, DEGA|BGGB dgfg|
~e3d egge|dB~B2 dega|bgag eage|dega bggf:|
~g3e dG~G2|AGEG DGGD|EAAG ABcd|eaaf gfef|
~g2eg dG~G2|AGEG DGGA|BGAG EAGE|DEGA BGGf|
gage dG~G2|AGEG DGGD|EAAG A2 (3Bcd|eaaf gfef|
~g3a bgag|gedB dega|bgag eage|dega bggf||

